dazn.svg

<svg viewBox="0 0 24 24" xmlns="http://www.w3.org/2000/svg"><path d="M23.9949 5.28308L23.9949 10.5662L23.2805 11.2805L22.561 12L23.2805 12.7195L23.9949 13.4338L23.9949 18.7169L23.9949 23.9949L11.9949 23.9949L0 23.9949L0 18.7272L0 13.439L0.714347 12.7246L1.43383 12.0051L0.714347 11.2857L0 10.5713L0 5.28308L0 0.00513919L12 0.00513919L24 0.00513919L24 5.28308L23.9949 5.28308ZM1.16146 5.61199L1.16146 10.0574L2.13276 11.0287L3.10921 12.0051L2.13276 12.9816L1.16146 13.9529L1.16146 18.3983L1.16146 22.8437L11.9949 22.8437L22.8283 22.8437L22.8283 18.3983L22.8283 13.9529L21.857 12.9816L20.8805 12.0051L21.857 11.0287L22.8283 10.0574L22.8283 5.61199L22.8283 1.1666L11.9949 1.1666L1.16146 1.1666L1.16146 5.61199ZM9.85696 4.68694L10.6124 5.4424L10.6124 7.24111L10.6124 9.03983L9.8621 9.79015L9.10664 10.5456L7.09722 10.5456L5.08779 10.5456L5.08779 7.23597L5.08779 3.92634L7.09722 3.92634L9.10664 3.92634L9.85696 4.68694ZM6.25439 7.24111L6.25439 9.38415L7.43126 9.38415L8.60814 9.38415L8.99358 8.96788L9.37901 8.55675L9.37901 7.24111L9.37901 5.92034L8.98844 5.50407L8.59786 5.08779L7.42099 5.08779L6.25439 5.08779L6.25439 7.24111ZM18.0899 7.23597C18.8403 9.04497 19.4518 10.5251 19.4518 10.5353C19.4518 10.5456 19.1692 10.5507 18.8197 10.5507L18.1876 10.5507L18.0231 10.1602L17.8587 9.76959L16.1782 9.76959L14.4976 9.76959L14.3435 10.1499L14.1893 10.5302L13.5469 10.5405C13.0381 10.5456 12.9045 10.5405 12.9199 10.5045C12.9302 10.4788 13.5366 9.00899 14.2715 7.24111C15.0064 5.46809 15.6128 4.00343 15.6231 3.97773C15.6385 3.9469 15.7722 3.93662 16.1884 3.94176L16.7281 3.95203L18.0899 7.23597ZM15.6077 7.12291C15.3045 7.85782 15.0424 8.4848 15.0321 8.52077C15.0116 8.58244 15.0784 8.58758 16.1833 8.58758C17.1238 8.58758 17.3499 8.5773 17.3396 8.54133C17.3139 8.43854 16.2039 5.78672 16.1833 5.78672C16.1679 5.78672 15.9161 6.39315 15.6077 7.12291ZM10.1088 14.0351L10.1088 14.6158L8.37687 16.7589L6.65525 18.8968L8.37687 18.9071L10.1088 18.9122L10.1088 19.4981L10.1088 20.0788L7.59572 20.0788L5.08779 20.0788L5.08779 19.4827L5.09293 18.8968L6.82998 16.7692L8.56702 14.6415L6.82484 14.6313L5.08779 14.621L5.08779 14.0403L5.08779 13.4595L7.59572 13.4595L10.1088 13.4595L10.1088 14.0351ZM16.0754 15.8133L17.7251 18.1773L17.7353 15.8133L17.7405 13.4595L18.3263 13.4595L18.9071 13.4595L18.9071 16.7692L18.9071 20.0788L18.2441 20.0788L17.5812 20.0788L16.1062 17.9358L14.6313 15.7979L14.621 17.9409L14.6158 20.0788L13.9991 20.0788L13.3773 20.0788L13.3773 16.7692L13.3773 13.4595L13.9015 13.4595L14.4206 13.4595L16.0754 15.8133Z" fill="#000000"/></svg>

<svg viewBox="0 0 24 24" xmlns="http://www.w3.org/2000/svg"><path d="M23.995 5.283v5.283l-.715.714-.719.72.72.72.714.714v10.561H0V13.439l.714-.714.72-.72-.72-.72L0 10.572V.005h24v5.278h-.005ZM1.16 5.612v4.445l.972.972.976.976-.976.977-.972.97v8.892h21.667v-8.891l-.971-.971-.976-.977.976-.976.971-.972v-8.89H1.161v4.445Zm8.696-.925.755.755V9.04l-.75.75-.755.756h-4.02v-6.62h4.02l.75.76ZM6.254 7.24v2.143h2.354l.386-.416.385-.411V5.92l-.39-.417-.391-.416H6.254V7.24Zm11.836-.005c.75 1.809 1.362 3.29 1.362 3.3 0 .01-.283.015-.632.015h-.632l-.165-.39-.164-.391H14.498l-.154.38-.155.38-.642.01c-.509.006-.643 0-.627-.035.01-.026.617-1.496 1.351-3.264l1.352-3.263c.016-.031.15-.041.565-.036l.54.01 1.362 3.284Zm-2.482-.113c-.303.735-.566 1.362-.576 1.398-.02.061.046.067 1.151.067.94 0 1.167-.01 1.157-.047-.026-.102-1.136-2.754-1.157-2.754-.015 0-.267.606-.575 1.336Zm-5.5 6.912v.58L8.378 16.76l-1.722 2.138 1.722.01 1.732.005v1.166H5.088v-.595l.005-.586 1.737-2.128 1.737-2.127-1.742-.01-1.737-.011v-1.162h5.021v.576Zm5.967 1.778 1.65 2.364.01-2.364.006-2.354h1.166v6.62h-1.326l-1.475-2.143-1.475-2.138-.01 2.143-.005 2.138H13.377v-6.62h1.044l1.654 2.354Z"/></svg>
